X:1
T:Title
%%score { ( 1 3 ) | ( 2 4 ) }
L:1/8
Q:1/4=81
M:6/8
K:C
V:1 treble nm="Grand Piano"
V:3 treble 
V:2 bass 
V:4 bass 
V:1
 [CE][DF][_E^F] [=EG][Ec][Ge] | dc>A [EG]3 | GG>G B3 | [FA][EG]>[EG] [EG]3 | %4
w: C.~F.~Wiegele * * * * *||||
 [CE][DF][_E^F] [=EG][Ec][Ge] | dc>A [EG]3 | GG>G Bc[Fd] | c6 | [CAc]>[CAc][CAc] [CAc][CGB][CFA] | %9
w: |||||
 [CFA][CEG]>[CEG] [CEG]3 | [B,DG][G,B,D][G,CE] [G,DF][G,CE][B,DF] | [FA][EG]>[EG] [EG]3 | %12
w: |||
 [Ac]>[Ac][Ac] [Ac][GB][FA] | [FA][EG]>[EG] [EG]3 | G>GG Bc[Fd] | c6 |] %16
w: ||||
V:2
 [C,G,][C,G,][C,G,] [C,C][C,G,][C,C] | [F,A,F][F,A,F]>[F,CF] [C,C]3 | %2
 [G,B,F][G,B,F]>[G,CF] [G,DF]3 | [C,C][C,C]>[C,C] [C,C]3 | [C,G,][C,G,][C,A,] [C,C][C,G,][C,C] | %5
 [F,A,F][F,A,F]>[F,CF] [C,C]3 | [G,B,F][G,B,F]>[G,B,F] [G,F][G,E][K:bass][G,,G,] | G,G,A, G,3 | %8
 F,>F,F, F,F,F, | C,C,>C, C,3 | G,,G,,G,, G,,G,,G,, | [C,C][C,C]>[C,C] [C,C]3 | %12
 [F,C]>[F,C][F,C] [F,C][F,C][F,C] | [C,C][C,C]>[C,C] [C,C]3 | %14
 [G,B,F]>[G,B,F][G,B,F] [G,D][G,E][K:bass][G,,G,] | G,G,A, G,3 |] %16
V:3
 x6 | x6 | x6 | x6 | x6 | x6 | x6 | EEF E3 | x6 | x6 | x6 | x6 | x6 | x6 | x6 | EEF E3 |] %16
V:4
 x6 | x6 | x6 | x6 | x6 | x6 | x5[K:bass] x | C,6 | x6 | x6 | x6 | x6 | x6 | x6 | x5[K:bass] x | %15
 C,6 |] %16

